svg/iPad_copyrighted.svg

<svg xmlns="http://www.w3.org/2000/svg" viewBox="0 0 32 32" enable-background="new 0 0 32 32"><path d="M 5 6 C 3.3545455 6 2 7.3545455 2 9 L 2 23 C 2 24.645455 3.3545455 26 5 26 L 27 26 C 28.645455 26 30 24.645455 30 23 L 30 9 C 30 7.3545455 28.645455 6 27 6 L 5 6 z M 5 8 L 27 8 C 27.554545 8 28 8.4454545 28 9 L 28 23 C 28 23.554545 27.554545 24 27 24 L 5 24 C 4.4454545 24 4 23.554545 4 23 L 4 9 C 4 8.4454545 4.4454545 8 5 8 z M 6 15 C 5.4477153 15 5 15.447715 5 16 C 5 16.552285 5.4477153 17 6 17 C 6.5522847 17 7 16.552285 7 16 C 7 15.447715 6.5522847 15 6 15 z" color="#000" overflow="visible" enable-background="accumulate"/></svg>

<svg xmlns="http://www.w3.org/2000/svg" viewBox="0 0 32 32"><path style="text-indent:0;text-align:start;line-height:normal;text-transform:none;block-progression:tb;-inkscape-font-specification:Bitstream Vera Sans" d="M5 6C3.355 6 2 7.355 2 9v14c0 1.645 1.355 3 3 3h22c1.645 0 3-1.355 3-3V9c0-1.645-1.355-3-3-3H5zm0 2h22c.555 0 1 .445 1 1v14c0 .555-.445 1-1 1H5c-.555 0-1-.445-1-1V9c0-.555.445-1 1-1zm1 7c-.552 0-1 .448-1 1s.448 1 1 1 1-.448 1-1-.448-1-1-1z" color="#000" overflow="visible" font-family="Bitstream Vera Sans"/></svg>
